X: 8
M: 3/4
L: 1/8
K: Eb
V: 1
|:\
e2 gegb | {g2}Tf2 edcB | c>Bcede | {c}TB2 AGFE |\
|:\
f2 dfBf | geBG E2 | a2 g2 (3(fga) | (3gfe (3def e2 |\
V: 2 clef=bass middle=d
|:\
"Eb"e6 | "Bb"b4 "Gm"g2 | "F7"a2 f2 "Bb"b2 | "Eb"e2 "Bb7"B2 "Eb"E2 |\
z2 "Ab"A2 A2 | z2 "Eb"G2 G2 | "Fm"A4 "F"=A2 | "Bb"HB2 BcdB :|
|:\
z2 "Bb"b2 B2 | "Eb"e6 | z2 z2 "Bb7"B2 | "Eb"e2 "Bb"B2 "Eb"E2 |\
z2 "Ab"a2 a2 | "Eb"g2 e2 g2 | "Ab"a2 "Bb"b2 B2 | "Eb"E6 :|

